icon/arrow-white.svg

<svg xmlns="http://www.w3.org/2000/svg" width="34" height="16" fill="none"  xmlns:v="https://vecta.io/nano"><path d="M1 7c-.552285 0-1 .44772-1 1s.447715 1 1 1V7zm32.7071 1.70711c.3905-.39053.3905-1.02369 0-1.41422L27.3431.928932c-.3905-.390524-1.0236-.390524-1.4142 0s-.3905 1.023688 0 1.414218L31.5858 8l-5.6569 5.6569c-.3905.3905-.3905 1.0236 0 1.4142s1.0237.3905 1.4142 0l6.364-6.36399zM1 9h32V7H1v2z" fill="#fff"/></svg>

<svg width="34" height="16" viewBox="0 0 34 16" fill="none" xmlns="http://www.w3.org/2000/svg">
<path d="M1 7C0.447715 7 0 7.44772 0 8C0 8.55228 0.447715 9 1 9V7ZM33.7071 8.70711C34.0976 8.31658 34.0976 7.68342 33.7071 7.29289L27.3431 0.928932C26.9526 0.538408 26.3195 0.538408 25.9289 0.928932C25.5384 1.31946 25.5384 1.95262 25.9289 2.34315L31.5858 8L25.9289 13.6569C25.5384 14.0474 25.5384 14.6805 25.9289 15.0711C26.3195 15.4616 26.9526 15.4616 27.3431 15.0711L33.7071 8.70711ZM1 9H33V7H1V9Z" fill="white"/>
</svg>
